X: 19155
T: Irlandsk Jig
R: reel
M: 4/4
K: Dmajor
((3ABc)|:d2 ((3ABc) d2 ((3ABc)|d2 A2 BA GF|EB GB EB GB|EB ed cd ec|
d2 ((3ABc) d2 ((3ABc)|d2 A2 BA GF|GABG FGAF|1 E2 C2 D2 ((3ABc):|2 E2 C2 D2 A2||
|:FA DA FA DA|FA dc BA GF|GB EB GB EB|GB ed cB AG|
FA DA FA DA|FA dc BA GF|GA BG FGAF|1 E2 C2 D2 A2:|2 E2 C2 D2 z2||

